img/svg/pinterest.svg

<svg width="16" height="16" viewBox="0 0 16 16"  xmlns="http://www.w3.org/2000/svg">
<path d="M8.20093 0.666016C4.15211 0.666627 2 3.2425 2 6.0512C2 7.3535 2.73296 8.97847 3.90656 9.49364C4.24135 9.64336 4.19704 9.46064 4.48505 8.36674C4.50782 8.27568 4.49613 8.19684 4.42228 8.1119C2.74465 6.18504 4.09488 2.22376 7.96154 2.22376C13.5575 2.22376 12.5119 9.91287 8.93512 9.91287C8.01323 9.91287 7.32643 9.19419 7.54367 8.30501C7.80707 7.24594 8.32279 6.10743 8.32279 5.34414C8.32279 3.42033 5.43648 3.70573 5.43648 6.25471C5.43648 7.04244 5.71711 7.57411 5.71711 7.57411C5.71711 7.57411 4.78845 11.2995 4.61613 11.9956C4.32443 13.1738 4.65552 15.0811 4.68445 15.2455C4.70229 15.3359 4.80445 15.3647 4.86169 15.2901C4.95338 15.1709 6.0759 13.5808 6.39038 12.4313C6.50485 12.0127 6.97441 10.3138 6.97441 10.3138C7.28396 10.8687 8.17632 11.3331 9.12713 11.3331C11.9556 11.3331 14 8.86419 14 5.80064C13.9902 2.8636 11.4589 0.666016 8.20093 0.666016V0.666016Z" />
</svg>

<svg width="16" height="16" xmlns="http://www.w3.org/2000/svg"><path d="M8.2.666C4.153.666 2 3.243 2 6.051c0 1.303.733 2.927 1.907 3.443.334.15.29-.033.578-1.127a.258.258 0 00-.063-.255c-1.677-1.927-.327-5.888 3.54-5.888 5.595 0 4.55 7.689.973 7.689-.922 0-1.609-.719-1.391-1.608.263-1.06.779-2.198.779-2.96 0-1.925-2.887-1.64-2.887.91 0 .787.281 1.32.281 1.32s-.929 3.724-1.1 4.42c-.293 1.179.039 3.086.067 3.25.018.09.12.12.178.045.091-.12 1.214-1.71 1.528-2.859l.584-2.117c.31.555 1.202 1.02 2.153 1.02C11.956 11.333 14 8.863 14 5.8 13.99 2.864 11.459.666 8.2.666z"/></svg>
